assets/images/Check.svg

<svg width="19" height="19" viewBox="0 0 19 19" fill="none" xmlns="http://www.w3.org/2000/svg">
<path fill-rule="evenodd" clip-rule="evenodd" d="M12.8977 6.4271L8.12434 11.0338L6.85767 9.68043C6.62434 9.46043 6.25767 9.4471 5.991 9.63377C5.731 9.8271 5.65767 10.1671 5.81767 10.4404L7.31767 12.8804C7.46434 13.1071 7.71767 13.2471 8.00434 13.2471C8.27767 13.2471 8.53767 13.1071 8.68434 12.8804C8.92434 12.5671 13.5043 7.1071 13.5043 7.1071C14.1043 6.49376 13.3777 5.95377 12.8977 6.42043V6.4271Z" fill="#8447FF"/>
<rect x="1" y="1" width="17" height="17" rx="8.5" stroke="#8447FF"/>
</svg>

<svg width="19" height="19" fill="none" xmlns="http://www.w3.org/2000/svg"><path fill-rule="evenodd" clip-rule="evenodd" d="m12.898 6.427-4.774 4.607L6.858 9.68a.692.692 0 0 0-.867-.046.611.611 0 0 0-.173.806l1.5 2.44a.81.81 0 0 0 .686.367c.274 0 .534-.14.68-.367.24-.313 4.82-5.773 4.82-5.773.6-.613-.126-1.153-.606-.687v.007Z" fill="#8447FF"/><rect x="1" y="1" width="17" height="17" rx="8.5" stroke="#8447FF"/></svg>
